X: 2749
T: Banks Of The Ilen, The
R: strathspey
M: 4/4
K: Dmajor
|:A>G|F<D (3FGA d2 f>d|(3dcd f>d e>cA<G|F<DF>A d2 f>d|e>cA<F G2:|
d>e|f2 f>d g2 g>e|a>ba>g f<dd>e|f>A (3fed g>B (3gfe|a2 (3fga g2 f>g|
a2 (3fga g>fe>g|f<dd>f e>cA<G|F2 (3DFA d>A (3fed|e>cA<F G2||

